outputs/icons/charts/chart_scatter_plot_round.svg

<svg xmlns="http://www.w3.org/2000/svg" width="1200" height="1200" fill="none"><path fill="#000" d="M359.998 910.01c-110.5 0-200-89.5-200-200s89.5-200 200-200S560 599.51 560 710.01s-89.502 200-200.002 200m0-300c-55 0-100 45-100 100s45 100 100 100 99.999-45 99.999-100-44.999-100-99.999-100M560 510.01c-110.502 0-200.002-89.5-200.002-200s89.5-200 200.002-200c110.5 0 200 89.5 200 200s-89.5 200-200 200m0-300c-55 0-100.003 45-100.003 100S505 410.01 560 410.01s100-45 100-100-45-100-100-100m280 880c-110.5 0-200-89.5-200-200s89.5-200 200-200 200 89.5 200 200-89.5 200-200 200m0-300c-55 0-100 45-100 100s45 100 100 100 100-45 100-100-45-100-100-100"/></svg>

<svg width="1200" height="1200" viewBox="0 0 1200 1200" fill="none" xmlns="http://www.w3.org/2000/svg"><path d="M360.01 910C249.51 910 160.01 820.5 160.01 710C160.01 599.5 249.51 510 360.01 510C470.51 510 560.01 599.5 560.01 710C560.01 820.5 470.51 910 360.01 910ZM360.01 610C305.01 610 260.01 655 260.01 710C260.01 765 305.01 810 360.01 810C415.01 810 460.01 765 460.01 710C460.01 655 415.01 610 360.01 610ZM560.01 510C449.51 510 360.01 420.5 360.01 310C360.01 199.5 449.51 110 560.01 110C670.51 110 760.01 199.5 760.01 310C760.01 420.5 670.51 510 560.01 510ZM560.01 210C505.01 210 460.01 255.001 460.01 310C460.01 365 505.01 410.001 560.01 410.001C615.01 410.001 660.01 365 660.01 310C660.01 255.001 615.01 210 560.01 210ZM840.01 1090C729.51 1090 640.01 1000.5 640.01 890C640.01 779.5 729.51 690 840.01 690C950.51 690 1040.01 779.5 1040.01 890C1040.01 1000.5 950.51 1090 840.01 1090ZM840.01 790C785.01 790 740.01 835 740.01 890C740.01 945 785.01 990 840.01 990C895.01 990 940.01 945 940.01 890C940.01 835 895.01 790 840.01 790Z" fill="#1D1E23"/></svg>
